packages/ffe-icons/icons/open/500/md/commit.svg

<svg xmlns="http://www.w3.org/2000/svg" height="24" viewBox="0 -960 960 960" width="24"><path d="M480-274.5q-73.717 0-129.294-45.5-55.576-45.5-71.01-114.5H117.37q-19.153 0-32.327-13.174T71.87-480q0-19.152 13.174-32.326T117.37-525.5h162.326q15.434-69 71.01-114.5Q406.283-685.5 480-685.5q73.717 0 129.294 45.5 55.576 45.5 71.01 114.5H842.63q19.153 0 32.327 13.174T888.131-480q0 19.152-13.174 32.326T842.63-434.5H680.304q-15.434 69-71.01 114.5Q553.717-274.5 480-274.5Zm0-91q47.848 0 81.174-33.446Q594.5-432.391 594.5-480q0-47.848-33.326-81.174Q527.848-594.5 480-594.5q-47.609 0-81.054 33.326Q365.5-527.848 365.5-480q0 47.609 33.446 81.054Q432.391-365.5 480-365.5Z"/></svg>

<svg xmlns="http://www.w3.org/2000/svg" height="24" viewBox="0 -960 960 960" width="24"><path d="M480-274.5q-73.72 0-129.29-45.5-55.58-45.5-71.01-114.5H117.37q-19.15 0-32.33-13.17Q71.87-460.85 71.87-480t13.17-32.33q13.18-13.17 32.33-13.17H279.7q15.43-69 71.01-114.5 55.57-45.5 129.29-45.5T609.29-640q55.58 45.5 71.01 114.5h162.33q19.15 0 32.33 13.17 13.17 13.18 13.17 32.33t-13.17 32.33q-13.18 13.17-32.33 13.17H680.3q-15.43 69-71.01 114.5-55.57 45.5-129.29 45.5Zm0-91q47.85 0 81.17-33.45Q594.5-432.39 594.5-480q0-47.85-33.33-81.17Q527.85-594.5 480-594.5q-47.61 0-81.05 33.33Q365.5-527.85 365.5-480q0 47.61 33.45 81.05Q432.39-365.5 480-365.5Z"/></svg>
